X:1
T:Jan's Courtship.
B:Songs of the West by S. Baring-Gould.
S:
M:6/8
L:1/8
K:G
F|G F G E2 F|G F G E2 F|G3/2 F1/2 G A3/2 G1/2 A| B3 z2 B|
w:Come hith-er, son Jan! since thou art a man, I'll gi'e the best coun-sel in life, Come
B A B c B A|B c B (AG) F|E B B B A B|
w:sit down by me, and my sto-ry shall be, *I'll tell how to get thee a
G2 E1/2 E1/2 E2 E1/2 E1/2|E2 E1/2 E1/2 E2 (G1/2A1/2)|B c B A G A|
w:wife. Iss, I will! man, I will! Zure I will! I'll *tell how to get thee a 
B2 E1/2 E1/2 E2 z||
w:wife! Iss, I will! 